X:1
T:Stealth Tension (10s)
C:Cascade
M:7/8
L:1/8
Q:1/4=120
K:Am
V:1
|: A,2 E2 A2 c | B,2 E2 B2 d | A,2 E2 A2 e | c2 B2 A2 G | A,2 E2 A c2 | B,2 d2 e d2 | c2 A2 G E2 | A6 z :|
